formas-de-pagamento/jcb.svg

<svg enable-background="new 0 0 60 40" height="40" viewBox="0 0 60 40" width="60" xmlns="http://www.w3.org/2000/svg" xmlns:xlink="http://www.w3.org/1999/xlink"><linearGradient id="a"><stop offset="0" stop-color="#007d40"/><stop offset="1" stop-color="#53b232"/></linearGradient><linearGradient id="b" gradientUnits="userSpaceOnUse" x1="36.4167" x2="44.2504" xlink:href="#a" y1="19.9915" y2="19.9915"/><linearGradient id="c" gradientUnits="userSpaceOnUse" x1="36.4167" x2="44.2504" xlink:href="#a" y1="21.2775" y2="21.2775"/><linearGradient id="d" gradientUnits="userSpaceOnUse" x1="36.4167" x2="44.2504" xlink:href="#a" y1="18.573" y2="18.573"/><linearGradient id="e" gradientUnits="userSpaceOnUse" x1="25.86" x2="34.177" y1="20" y2="20"><stop offset="0" stop-color="#762a2e"/><stop offset="1" stop-color="#e30138"/></linearGradient><linearGradient id="f" gradientUnits="userSpaceOnUse" x1="15.524" x2="23.841" y1="19.9815" y2="19.9815"><stop offset="0" stop-color="#1b2d74"/><stop offset="1" stop-color="#006bb6"/></linearGradient><switch><foreignObject height="1" requiredExtensions="http://ns.adobe.com/AdobeIllustrator/10.0/" width="1"/><g><path d="m60 35c0 2.75-2.25 5-5 5h-50c-2.75 0-5-2.25-5-5v-30c0-2.75 2.25-5 5-5h50c2.75 0 5 2.25 5 5z" fill="#fff"/><path d="m55 0h-50c-2.75 0-5 2.25-5 5v30c0 2.75 2.25 5 5 5h50c2.75 0 5-2.25 5-5v-30c0-2.75-2.25-5-5-5zm0 1c2.206 0 4 1.794 4 4v30c0 2.206-1.794 4-4 4h-50c-2.206 0-4-1.794-4-4v-30c0-2.206 1.794-4 4-4z" fill="#d0d0d0" opacity=".6"/><path d="m39.549 9.888v-.002c-1.852 0-3.371 1.5-3.371 3.371v3.501h4.761c.111 0 .241 0 .333.019 1.074.056 1.871.611 1.871 1.575 0 .759-.537 1.408-1.537 1.538v.037c1.093.074 1.926.685 1.926 1.63 0 1.019-.926 1.686-2.149 1.686h-5.224v6.854h4.946c1.852 0 3.371-1.5 3.371-3.371v-16.838z" fill="url(#b)"/><path d="m37.827 22.167h1.945c.056 0 .185-.018.241-.018.37-.074.685-.408.685-.871 0-.445-.315-.778-.685-.871-.056-.019-.167-.019-.241-.019h-1.945z" fill="url(#c)"/><path d="m40.457 18.574c0-.445-.315-.741-.685-.797-.037 0-.13-.019-.185-.019h-1.76v1.63h1.76c.056 0 .167 0 .185-.019.37-.054.685-.351.685-.795z" fill="url(#d)"/><path d="m29.231 9.886c-1.852 0-3.371 1.5-3.371 3.371v4.409c.852-.722 2.334-1.186 4.724-1.074 1.278.056 2.649.408 2.649.408v1.426c-.685-.352-1.5-.667-2.556-.741-1.815-.13-2.908.759-2.908 2.315 0 1.575 1.093 2.464 2.908 2.315 1.056-.074 1.871-.408 2.556-.741v1.426s-1.352.352-2.649.408c-2.39.111-3.872-.352-4.724-1.074v7.78h4.946c1.852 0 3.371-1.5 3.371-3.371v-16.857z" fill="url(#e)"/><path d="m18.913 9.886c-1.852 0-3.371 1.5-3.371 3.371v8.317c.945.463 1.927.759 2.908.759 1.167 0 1.797-.704 1.797-1.667v-3.927h2.89v3.909c0 1.519-.945 2.76-4.149 2.76-1.945 0-3.464-.426-3.464-.426v7.095h4.946c1.852 0 3.371-1.5 3.371-3.371v-16.82z" fill="url(#f)"/></g></switch></svg>

<?xml version="1.0" encoding="UTF-8"?>
<svg width="60px" height="40px" viewBox="0 0 60 40" version="1.1" xmlns="http://www.w3.org/2000/svg" xmlns:xlink="http://www.w3.org/1999/xlink">
    <!-- Generator: Sketch 52.4 (67378) - http://www.bohemiancoding.com/sketch -->
    <title>Artboard</title>
    <desc>Created with Sketch.</desc>
    <defs>
        <linearGradient x1="3.09847301%" y1="50%" x2="97.2874835%" y2="50%" id="linearGradient-1">
            <stop stop-color="#007D40" offset="0%"></stop>
            <stop stop-color="#53B232" offset="100%"></stop>
        </linearGradient>
        <linearGradient x1="-49.1222571%" y1="50%" x2="223.733891%" y2="50%" id="linearGradient-2">
            <stop stop-color="#007D40" offset="0%"></stop>
            <stop stop-color="#53B232" offset="100%"></stop>
        </linearGradient>
        <linearGradient x1="-53.6235741%" y1="50%" x2="244.235741%" y2="50%" id="linearGradient-3">
            <stop stop-color="#007D40" offset="0%"></stop>
            <stop stop-color="#53B232" offset="100%"></stop>
        </linearGradient>
        <linearGradient x1="-4.27162881e-14%" y1="50%" x2="100%" y2="50%" id="linearGradient-4">
            <stop stop-color="#762A2E" offset="0%"></stop>
            <stop stop-color="#E30138" offset="100%"></stop>
        </linearGradient>
        <linearGradient x1="0%" y1="50%" x2="100%" y2="50%" id="linearGradient-5">
            <stop stop-color="#1B2D74" offset="0%"></stop>
            <stop stop-color="#006BB6" offset="100%"></stop>
        </linearGradient>
    </defs>
    <g id="Artboard" stroke="none" stroke-width="1" fill="none" fill-rule="evenodd">
        <g id="jcb">
            <path d="M60,35 C60,37.75 57.75,40 55,40 L5,40 C2.25,40 0,37.75 0,35 L0,5 C0,2.25 2.25,0 5,0 L55,0 C57.75,0 60,2.25 60,5 L60,35 Z" id="Path" fill="#FFFFFF"></path>
            <path d="M55,0 L5,0 C2.25,0 0,2.25 0,5 L0,35 C0,37.75 2.25,40 5,40 L55,40 C57.75,40 60,37.75 60,35 L60,5 C60,2.25 57.75,0 55,0 Z M55,1 C57.206,1 59,2.794 59,5 L59,35 C59,37.206 57.206,39 55,39 L5,39 C2.794,39 1,37.206 1,35 L1,5 C1,2.794 2.794,1 5,1 L55,1 Z" id="Shape" fill="#D0D0D0" fill-rule="nonzero" opacity="0.6"></path>
            <path d="M39.549,9.888 L39.549,9.886 C37.697,9.886 36.178,11.386 36.178,13.257 L36.178,16.758 L40.939,16.758 C41.05,16.758 41.18,16.758 41.272,16.777 C42.346,16.833 43.143,17.388 43.143,18.352 C43.143,19.111 42.606,19.76 41.606,19.89 L41.606,19.927 C42.699,20.001 43.532,20.612 43.532,21.557 C43.532,22.576 42.606,23.243 41.383,23.243 L36.159,23.243 L36.159,30.097 L41.105,30.097 C42.957,30.097 44.476,28.597 44.476,26.726 L44.476,9.888 L39.549,9.888 Z" id="Path" fill="url(#linearGradient-1)"></path>
            <path d="M37.827,22.167 L39.772,22.167 C39.828,22.167 39.957,22.149 40.013,22.149 C40.383,22.075 40.698,21.741 40.698,21.278 C40.698,20.833 40.383,20.5 40.013,20.407 C39.957,20.388 39.846,20.388 39.772,20.388 L37.827,20.388 L37.827,22.167 Z" id="Path" fill="url(#linearGradient-2)"></path>
            <path d="M40.457,18.574 C40.457,18.129 40.142,17.833 39.772,17.777 C39.735,17.777 39.642,17.758 39.587,17.758 L37.827,17.758 L37.827,19.388 L39.587,19.388 C39.643,19.388 39.754,19.388 39.772,19.369 C40.142,19.315 40.457,19.018 40.457,18.574 Z" id="Path" fill="url(#linearGradient-3)"></path>
            <path d="M29.231,9.886 C27.379,9.886 25.86,11.386 25.86,13.257 L25.86,17.666 C26.712,16.944 28.194,16.48 30.584,16.592 C31.862,16.648 33.233,17 33.233,17 L33.233,18.426 C32.548,18.074 31.733,17.759 30.677,17.685 C28.862,17.555 27.769,18.444 27.769,20 C27.769,21.575 28.862,22.464 30.677,22.315 C31.733,22.241 32.548,21.907 33.233,21.574 L33.233,23 C33.233,23 31.881,23.352 30.584,23.408 C28.194,23.519 26.712,23.056 25.86,22.334 L25.86,30.114 L30.806,30.114 C32.658,30.114 34.177,28.614 34.177,26.743 L34.177,9.886 L29.231,9.886 Z" id="Path" fill="url(#linearGradient-4)"></path>
            <path d="M18.913,9.886 C17.061,9.886 15.542,11.386 15.542,13.257 L15.542,21.574 C16.487,22.037 17.469,22.333 18.45,22.333 C19.617,22.333 20.247,21.629 20.247,20.666 L20.247,16.739 L23.137,16.739 L23.137,20.648 C23.137,22.167 22.192,23.408 18.988,23.408 C17.043,23.408 15.524,22.982 15.524,22.982 L15.524,30.077 L20.47,30.077 C22.322,30.077 23.841,28.577 23.841,26.706 L23.841,9.886 L18.913,9.886 Z" id="Path" fill="url(#linearGradient-5)"></path>
        </g>
    </g>
</svg>
